X:1
T:Title
%%score { ( 1 3 4 ) | ( 2 5 6 ) }
L:1/8
Q:1/4=100
M:4/4
K:Eb
V:1 treble nm="Grand Piano"
V:3 treble 
V:4 treble 
V:2 bass 
V:5 bass 
V:6 bass 
V:1
 G4 AGFE | D2 [Dc]2 [DB]4 | [DA]4 [DB][CDA][B,DG][A,DF] | E2 e2 B4 | [=EG]4 [EA][EG]FE | %5
w: Alfred~Judson * * * *|||||
 F=EF[EG] AC[CG][CF] | [B,E]4 [Dc][DB][DA][A,D] |[M:9/8] [A,DF]3- [A,DF] [G,E]2- [G,E] B2 | %8
w: |||
[M:4/4] z2 (3[Adf][Adf][G_d=e] [A=df]2 B2 | z2 (3[da][da][_dg] [=da]2 B2 | B=ABc d2 e2 | f6 z2 | %12
w: ||||
 e6 z2 | B6 z2 | G2 [FA]2 [_G=A]2 [=GB]2 | [_Gc]4 [=GB]4 | d6 z2 | e6 z2 | %18
w: ||||||
 [Bf]2 [FBd]2 [=EBc]2 [_E=Ad]2 | [DB]2 B2 c2 d2 | e6 z2 | B6 z2 | G2 [FA]2 [_G=A]2 [=GB]2 | %23
w: |||||
 =B4 c4 | e6 z2 | e6 z2 |[M:9/8] B2 c- c B2 f3 |[M:4/4] [Ge]6 z2 |] %28
w: |||||
V:2
 [E,B,E]4 [E,CE][E,B,E][E,A,E][E,G,] | [B,,F,]2 [B,,A,]2 [B,,A,]4 | [B,,F,]4 [B,,F,]B,,B,,B,, | %3
 [E,G,]2 [E,G,E]2 [E,G,E]4 | [C,B,]4 [C,C][C,B,][C,A,C][C,G,C] | %5
 [F,A,C][C,G,C][F,A,C][C,C] [F,CF][F,A,][A,,A,][A,,A,] | [B,,G,]4 [B,,A,][B,,A,][B,,F,]B,, | %7
[M:9/8] B,,3- B,, E,2- E, B,2 |[M:4/4] B,2 (3B,B,B, B,2 B,2 | %9
 B,2[K:treble] (3[B,F][B,F][B,=E] [B,F]2 B,2 | B,=A,B,C D2 [B,EG]2 | [B,DA]6 z2 | z2 (3GGG G2 z2 | %13
 z2 (3EEE E2[K:bass] z2 | [E,B,E]2 [E,D]2 [E,C]2 [E,B,]2 | [E,=A,]4 [E,B,]4 | z2 (3FFF F2 z2 | %17
 z2 (3GGG G2[K:bass] z2 | [F,D]2 F,2 G,2 F,2 | B,2 B,2[K:treble] C2 D2 | z2 (3GGG G2 z2 | %21
 z2 (3EEE E2[K:bass] z2 | [E,B,E]2 [E,D]2 [E,C]2 [E,B,]2 | [G,DF]4 [A,CE]4 | %24
 (3[E_G=B][EG][EG] (3[EG][EG][EG] [EG]2 D>C | z2 (3GGG G2 z2 |[M:9/8] B,2 C- C B,2 [B,DA]3 | %27
[M:4/4][K:bass] [E,B,E]6 z2 |] %28
V:3
 x8 | x8 | x8 | x8 | x8 | x8 | x8 |[M:9/8] x9 |[M:4/4] B6 z2 | B6 z2 | x8 | x8 | (3z BB z2 z2 d>c | %13
 (3z GG z2 z4 | x8 | x8 | (3z AA z2 z2 c>B | (3[GB]BB z2 z2 [Gd]>[Gc] | x8 | x8 | %20
 (3z BB z2 z2 d>c | (3z GG z2 z4 | x8 | x8 | (3z =BB z2 z2 d>c | (3z BB z2 z4 |[M:9/8] x9 | %27
[M:4/4] x8 |] %28
V:4
 x8 | x8 | x8 | x8 | x8 | x8 | x8 |[M:9/8] x9 |[M:4/4] x8 | x8 | x8 | x8 | z2 (3BBB B2 z2 | %13
 z2 (3GGG G2 E>F | x8 | x8 | z2 (3AAA A2 z2 | z2 (3BBB B2 z2 | x8 | x8 | z2 (3BBB B2 z2 | %21
 z2 (3GGG G2 E>F | x8 | x8 | z2 (3=BBB B2 z2 | z2 (3BBB B2 G>A |[M:9/8] x9 |[M:4/4] x8 |] %28
V:5
 x8 | x8 | x8 | x8 | x8 | x8 | x8 |[M:9/8] x9 |[M:4/4] x8 | x2[K:treble] x6 | x8 | x8 | %12
 (3[E-GB][E-G][E-G] E4 D>C | (3[B,-EG][B,-E][B,-E] B,4[K:bass] [E,G,]>[E,A,E] | x8 | x8 | %16
 (3[B,-FA][B,-F][B,-F] B,4 [B,EA]>[B,DA] | (3z GG z2 z2[K:bass] [E,E]>[E,E] | x8 | %19
 x4[K:treble] x4 | (3[E-GB][E-G][E-G] E4 D>C | (3[B,-EG][B,-E][B,-E] B,4[K:bass] [E,G,]>[E,A,E] | %22
 x8 | x8 | x8 | (3[E-GB][E-G][E-G] E4 G,>A, |[M:9/8] x9 |[M:4/4][K:bass] x8 |] %28
V:6
 x8 | x8 | x8 | x8 | x8 | x8 | x8 |[M:9/8] x9 |[M:4/4] x8 | x2[K:treble] x6 | x8 | x8 | x8 | %13
 x6[K:bass] x2 | x8 | x8 | x8 | [E,B,]6[K:bass] z2 | x8 | x4[K:treble] x4 | x8 | x6[K:bass] x2 | %22
 x8 | x8 | x8 | x8 |[M:9/8] x9 |[M:4/4][K:bass] x8 |] %28

